X:3
T:Dermot Grogan's #2 (Use "A" Whistle)
M:6/8
L:1/8
S:L.Nugent #1 Trk 9
R:Double Jig
K:Edor
|: "(hiG)"dAF "(Cnat)"GFE | "(loG)"D2F "(loA)"EDB, |\
"(loD)"A,DD "(loF)"CDE |1 "(loB)"FDF "(loA)"EFA |2 "(loB)"FDD "(loG)"D2z :|
|: "(loG)"DFA "(hiG)"d3 | "(hiA)"ede "(hiB)"fdB |\
"(hiG)"d2f "(hiA)"edB | "(hiD)"ABd "(hiA)"e2f |
"(hiA)"edB "(hiE)"BAF | "(hiD)"AFE "(loA)"EDB, |\
"(loD)"A,DD "(loF)"CDE | "(loB)"FDC "(loG)"D3 :|
